X:1
T:Title
%%score { ( 1 3 ) | ( 2 4 ) }
L:1/8
M:6/8
K:G
V:1 treble nm="Grand Piano"
V:3 treble 
V:2 bass 
V:4 bass 
V:1
 z3 z2[Q:1/4=90] [B,D] | [B,D][B,E][B,F] [B,G][B,F][B,E] | [CF][CA][CE] F2 E/E/ | D2 c [Ec]2 [Fc] | %4
 c3 B2 [B,D] | [B,D][B,E][B,F] [B,G][B,F][B,E] | [CF][CA][CE] F2 E/E/ | D2 c E2 F | %8
[M:5/8] A3 [B,G]2 |[M:1/8] B/B/ |[M:3/4] B2 A A2 c | c3 B2 D/G/ | F6 | B6 | Bc [EB] [Ee]2 [EA] | %15
 [DA][DB] [DA] [Dd]2 [=Fd]/[Fe]/ | [Ed]2 [Ec] B2 D | A3 [B,G]3 |] %18
V:2
 z3 z2 [G,,G,] | [G,,G,][G,,G,][G,,G,] [G,,D,][G,,D,][G,,D,] | %2
 [A,,D,][A,,D,][A,,D,] [D,A,C]2 [D,G,C]/[D,G,C]/ | [D,F,C]2 [D,F,D] [D,G,]2 [D,A,] | %4
 [G,E]3 [G,D]2 [G,,G,] | [G,,G,][G,,G,][G,,G,] [G,,D,][G,,D,][G,,D,] | %6
 [A,,D,][A,,D,][A,,D,] [D,A,C]2 [D,G,C]/[D,G,C]/ | [D,F,C]2 [D,F,D] [D,G,C]2 [D,A,C] | %8
[M:5/8] [D,F,C]3 [G,,G,]2 |[M:1/8] [G,D]/[G,D]/ |[M:3/4] [D,G,D]2 [D,F,D] [D,F,D]2 [D,A,D] | %11
 [G,E]3 [G,D]2 B,/B,/ | C6[K:treble] | G6[K:bass] | [E,^G,D][E,G,E] [D,G,] [^C,A,]2 [C,G,] | %15
 [D,F,][D,F,] [C,F,] [B,,G,]2 [B,,G,]/[B,,G,]/ | [C,G,]2 [C,G,] [D,G,D]2 [D,G,B,] | %17
 [D,F,C]3 [G,,G,]3 |] %18
V:3
 x6 | x6 | x6 | x6 | x6 | x6 | x6 | x6 |[M:5/8] x5 |[M:1/8] x |[M:3/4] x6 | x6 | %12
 z2 A,/A,/ A,2 c/c/ | z2 D/D/ D2 B | x6 | x6 | x6 | x6 |] %18
V:4
 x6 | x6 | x6 | x6 | x6 | x6 | x6 | x6 |[M:5/8] x5 |[M:1/8] x |[M:3/4] x6 | x6 | %12
 z2 D,/D,/ D,2[K:treble] E/F/ | z2 G,/G,/[K:bass] G,2 [G,D] | x6 | x6 | x6 | x6 |] %18

